assets/img/sections/section-updates.svg

<svg width="581" height="146" viewBox="0 0 581 146" fill="none" xmlns="http://www.w3.org/2000/svg">
<path d="M435.299 145.501H290.299V0.501221L435.299 145.501ZM389.643 9.50122C407.661 9.50122 422.268 24.1079 422.268 42.1262C422.268 60.1443 407.661 74.7512 389.643 74.7512C371.625 74.7512 357.018 60.1443 357.018 42.1262C357.018 24.108 371.625 9.50124 389.643 9.50122Z" fill="url(#paint0_linear_1148_5350)"/>
<path d="M475.174 0.501221C453.152 0.501221 435.299 18.3537 435.299 40.3763V145.501H580.299V0.501221H475.174Z" fill="#244783"/>
<path d="M105.423 145.501H0.29834C0.29834 65.4199 65.2171 0.501221 145.298 0.501221V105.626C145.298 127.649 127.446 145.501 105.423 145.501Z" fill="url(#paint1_linear_1148_5350)"/>
<path d="M217.798 145.501C257.838 145.501 290.298 113.042 290.298 73.0016C290.298 32.9611 257.838 0.501831 217.798 0.501831C177.758 0.501831 145.298 32.9611 145.298 73.0016C145.298 113.042 177.758 145.501 217.798 145.501Z" fill="#1D4874"/>
<g style="mix-blend-mode:multiply" opacity="0.27">
<path d="M217.626 145.497C217.655 145.497 217.705 145.5 217.735 145.5C217.749 145.5 217.784 145.501 217.798 145.501C257.838 145.501 290.298 113.042 290.298 73.0016C290.298 70.694 290.179 68.415 289.968 66.1625L217.798 17.9884L204.769 58.0896H162.604L196.716 82.8735L183.686 122.975L217.626 145.497Z" fill="black"/>
</g>
<path d="M217.798 17.9884L230.828 58.0896H272.993L238.881 82.8735L251.91 122.975L217.798 98.1908L183.686 122.975L196.716 82.8735L162.604 58.0896H204.769L217.798 17.9884Z" fill="#7FA3E9"/>
<defs>
<linearGradient id="paint0_linear_1148_5350" x1="305.189" y1="145.501" x2="411.721" y2="26.6065" gradientUnits="userSpaceOnUse">
<stop stop-color="#7AA5E7"/>
<stop offset="0.99716" stop-color="#003BA1"/>
</linearGradient>
<linearGradient id="paint1_linear_1148_5350" x1="46" y1="38" x2="135" y2="139" gradientUnits="userSpaceOnUse">
<stop stop-color="#7FA3E9"/>
<stop offset="1" stop-color="#183059"/>
</linearGradient>
</defs>
</svg>

<svg xmlns="http://www.w3.org/2000/svg" width="581" height="146" fill="none" viewBox="0 0 581 146"><path fill="url(#a)" d="M435.299 145.501h-145v-145zm-45.656-136c18.018 0 32.625 14.607 32.625 32.625s-14.607 32.625-32.625 32.625-32.625-14.607-32.625-32.625 14.607-32.625 32.625-32.625"/><path fill="#244783" d="M475.174.501c-22.022 0-39.875 17.853-39.875 39.875v105.125h145v-145z"/><path fill="url(#b)" d="M105.423 145.501H.298c0-80.081 64.92-145 145-145v105.125c0 22.023-17.852 39.875-39.875 39.875"/><path fill="#1d4874" d="M217.798 145.501c40.04 0 72.5-32.459 72.5-72.5s-32.46-72.5-72.5-72.5-72.5 32.46-72.5 72.5 32.46 72.5 72.5 72.5"/><path fill="#000" d="m217.626 145.497.109.003.063.001c40.04 0 72.5-32.459 72.5-72.5 0-2.307-.119-4.586-.33-6.839l-72.17-48.174-13.029 40.102h-42.165l34.112 24.784-13.03 40.101z" opacity=".27" style="mix-blend-mode:multiply"/><path fill="#7fa3e9" d="m217.798 17.988 13.03 40.102h42.165l-34.112 24.784 13.029 40.101-34.112-24.784-34.112 24.784 13.03-40.101-34.112-24.784h42.165z"/><defs><linearGradient id="a" x1="305.189" x2="411.721" y1="145.501" y2="26.607" gradientUnits="userSpaceOnUse"><stop stop-color="#7aa5e7"/><stop offset=".997" stop-color="#003ba1"/></linearGradient><linearGradient id="b" x1="46" x2="135" y1="38" y2="139" gradientUnits="userSpaceOnUse"><stop stop-color="#7fa3e9"/><stop offset="1" stop-color="#183059"/></linearGradient></defs></svg>
